X:1
T: The Ladus
C:
R:Reel
Q: 232
K:G
M:4/4
L:1/8
dc|BG GB d2 cB|AD DE FG Ac|BG GB d2 cB|cd ef g2 dc|
BG GB d2 cB|AD DE FG Ac|BG GB d2 cB|cd ef g2 dc|
|:G2 gf ed cB|Aa ag fe dc|Bd gf ed cB|cd ef g2 g2|
G2 gf ed cB|AD DE F2 GA|BG GB cA Ag|fd ef g2 g2:|
BG GB d2 cB|AD DE FG Ac|BG GB d2 cB|cd ef g2 dc|
BG GB d2 cB|AD DE FG Ac|BG GB d2 cB|cd ef g2||
